X:1041
M:C
L:1/8
Q:1/4=120
K:D
f|d>efb  a>fd>f|g>ef>d e/e/e Tf2|d>efb  a>fd>f|g>ea>f d/d/d df|
  d>ef>b a>fd>f|g>ef>d e/e/e  f2|d>eB>d A>BG>A|F>GE>d D/D/D D|]

